src/img/icons/links.svg

<svg width="32" height="32" viewBox="0 0 32 32" fill="none" xmlns="http://www.w3.org/2000/svg">
<path d="M8.68832 22.3766C6.83786 22.3766 5.26053 21.7245 3.95632 20.4203C2.65211 19.1164 2 17.5393 2 15.6891C2 13.8388 2.65211 12.2615 3.95632 10.9571C5.26053 9.65235 6.83786 9 8.68832 9H13.1377C13.4509 9 13.7133 9.10598 13.9251 9.31795C14.137 9.52991 14.243 9.79259 14.243 10.106C14.243 10.4192 14.137 10.6816 13.9251 10.8933C13.7133 11.1048 13.4509 11.2105 13.1377 11.2105H8.68647C7.45005 11.2105 6.39502 11.6475 5.52137 12.5214C4.64747 13.3953 4.21053 14.4509 4.21053 15.6883C4.21053 16.9257 4.64747 17.9814 5.52137 18.8553C6.39502 19.7292 7.45005 20.1661 8.68647 20.1661H13.1377C13.4509 20.1661 13.7133 20.2721 13.9251 20.4841C14.137 20.696 14.243 20.9586 14.243 21.2717C14.243 21.5851 14.137 21.8476 13.9251 22.0591C13.7133 22.2708 13.4509 22.3766 13.1377 22.3766H8.68832ZM11.5789 16.7936C11.2658 16.7936 11.0034 16.6876 10.7916 16.4756C10.5797 16.2637 10.4737 16.0011 10.4737 15.6879C10.4737 15.3745 10.5797 15.1121 10.7916 14.9006C11.0034 14.6889 11.2658 14.5831 11.5789 14.5831H20.4211C20.7342 14.5831 20.9966 14.689 21.2084 14.901C21.4203 15.113 21.5263 15.3755 21.5263 15.6887C21.5263 16.0021 21.4203 16.2645 21.2084 16.476C20.9966 16.6877 20.7342 16.7936 20.4211 16.7936H11.5789ZM18.8623 22.3766C18.5491 22.3766 18.2867 22.2706 18.0749 22.0587C17.863 21.8467 17.757 21.584 17.757 21.2706C17.757 20.9575 17.863 20.695 18.0749 20.4833C18.2867 20.2718 18.5491 20.1661 18.8623 20.1661H23.3135C24.5499 20.1661 25.605 19.7292 26.4786 18.8553C27.3525 17.9814 27.7895 16.9257 27.7895 15.6883C27.7895 14.4509 27.3525 13.3953 26.4786 12.5214C25.605 11.6475 24.5499 11.2105 23.3135 11.2105H18.8623C18.5491 11.2105 18.2867 11.1045 18.0749 10.8926C17.863 10.6806 17.757 10.4181 17.757 10.1049C17.757 9.79149 17.863 9.52905 18.0749 9.31758C18.2867 9.10586 18.5491 9 18.8623 9H23.3117C25.1621 9 26.7395 9.6521 28.0437 10.9563C29.3479 12.2603 30 13.8374 30 15.6876C30 17.5378 29.3479 19.1151 28.0437 20.4196C26.7395 21.7243 25.1621 22.3766 23.3117 22.3766H18.8623Z" fill="#131212"/>
</svg>

<svg xmlns="http://www.w3.org/2000/svg" viewBox="0 0 32 32">
  <path fill="currentColor" d="M8.688 22.377c-1.85 0-3.427-.652-4.732-1.957C2.652 19.116 2 17.54 2 15.69c0-1.851.652-3.428 1.956-4.733C5.261 9.652 6.838 9 8.688 9h4.45c.313 0 .575.106.787.318.212.212.318.475.318.788 0 .313-.106.576-.318.787a1.07 1.07 0 0 1-.787.317H8.686c-1.236 0-2.291.438-3.165 1.311-.874.874-1.31 1.93-1.31 3.167 0 1.238.436 2.293 1.31 3.167.874.874 1.93 1.311 3.165 1.311h4.452c.313 0 .575.106.787.318.212.212.318.475.318.788 0 .313-.106.576-.318.787a1.07 1.07 0 0 1-.787.318h-4.45Zm2.89-5.583c-.312 0-.575-.106-.786-.318a1.07 1.07 0 0 1-.318-.788c0-.314.106-.576.318-.787a1.07 1.07 0 0 1 .787-.318h8.842c.313 0 .576.106.787.318.212.212.318.475.318.788 0 .313-.106.576-.318.787a1.07 1.07 0 0 1-.787.318H11.58Zm7.284 5.583c-.313 0-.575-.106-.787-.318a1.07 1.07 0 0 1-.318-.788c0-.314.106-.576.318-.788a1.07 1.07 0 0 1 .787-.317h4.452c1.236 0 2.291-.437 3.165-1.31.873-.875 1.31-1.93 1.31-3.168 0-1.237-.437-2.293-1.31-3.167-.874-.873-1.93-1.31-3.165-1.31h-4.452c-.313 0-.575-.107-.787-.318a1.07 1.07 0 0 1-.318-.788c0-.314.106-.576.318-.787A1.07 1.07 0 0 1 18.862 9h4.45c1.85 0 3.427.652 4.732 1.956C29.348 12.26 30 13.837 30 15.688c0 1.85-.652 3.427-1.956 4.732-1.305 1.304-2.882 1.957-4.732 1.957h-4.45Z"/>
</svg>
